communes/4611.svg

<?xml version="1.0" encoding="UTF-8" standalone="no"?>
<!-- Created with Inkscape (http://www.inkscape.org/) -->

<svg
   xmlns:dc="http://purl.org/dc/elements/1.1/"
   xmlns:cc="http://creativecommons.org/ns#"
   xmlns:rdf="http://www.w3.org/1999/02/22-rdf-syntax-ns#"
   xmlns:svg="http://www.w3.org/2000/svg"
   xmlns="http://www.w3.org/2000/svg"
   xmlns:sodipodi="http://sodipodi.sourceforge.net/DTD/sodipodi-0.dtd"
   xmlns:inkscape="http://www.inkscape.org/namespaces/inkscape"
   version="1.0"
   width="208.86046"
   height="244.65999"
   id="svg2780"
   inkscape:version="0.92.5 (2060ec1f9f, 2020-04-08)"
   sodipodi:docname="Thundorf-blazon.svg">
  <metadata
     id="metadata27">
    <rdf:RDF>
      <cc:Work
         rdf:about="">
        <dc:format>image/svg+xml</dc:format>
        <dc:type
           rdf:resource="http://purl.org/dc/dcmitype/StillImage" />
        <dc:title></dc:title>
      </cc:Work>
    </rdf:RDF>
  </metadata>
  <sodipodi:namedview
     pagecolor="#ffffff"
     bordercolor="#666666"
     borderopacity="1"
     objecttolerance="10"
     gridtolerance="10"
     guidetolerance="10"
     inkscape:pageopacity="0"
     inkscape:pageshadow="2"
     inkscape:window-width="3287"
     inkscape:window-height="1417"
     id="namedview25"
     showgrid="false"
     inkscape:zoom="1"
     inkscape:cx="-334.81138"
     inkscape:cy="91.787274"
     inkscape:window-x="-8"
     inkscape:window-y="-8"
     inkscape:window-maximized="1"
     inkscape:current-layer="svg2780"
     inkscape:measure-start="104.255,149.787"
     inkscape:measure-end="104.255,126.383"
     showguides="true"
     inkscape:object-paths="true"
     inkscape:snap-intersection-paths="true" />
  <defs
     id="defs2782" />
  <path
     inkscape:connector-curvature="0"
     style="fill:#cc2918;fill-opacity:1;fill-rule:evenodd;stroke:#000000;stroke-width:1.99999988;stroke-linecap:butt;stroke-miterlimit:4;stroke-dashoffset:0;stroke-opacity:1"
     id="path4212"
     d="m 1,1 3.761095,158.00304 c 2.686489,112.85918 196.651755,112.85918 199.338255,0 L 207.86045,1 Z" />
  <path
     id="path850-6-6"
     style="opacity:1;fill:#ffffff;fill-opacity:1;stroke:#000000;stroke-width:1;stroke-miterlimit:4;stroke-dasharray:none;stroke-dashoffset:4.57999992;stroke-opacity:1"
     d="m 135.99707,177.02456 -13.7659,18.28595 13.76592,18.28595 -22.66638,-2.81844 -8.90047,21.10442 -8.900469,-21.10442 -22.666387,2.81844 13.765923,-18.28595 -13.765923,-18.28597 22.666387,2.81845 8.900469,-21.10439 8.90047,21.10439 z"
     inkscape:connector-curvature="0"
     sodipodi:nodetypes="ccccccccccccc" />
  <path
     style="opacity:1;fill:#ffffff;fill-opacity:1;stroke:#000000;stroke-width:1;stroke-miterlimit:20;stroke-dasharray:none;stroke-dashoffset:4.57999992;stroke-opacity:1"
     d="m 3.1302094,90.48978 1.3330207,56 H 204.39722 l 1.33302,-56 z"
     id="path5162"
     inkscape:connector-curvature="0" />
  <path
     id="path850-6-6-9"
     style="opacity:1;fill:#ffffff;fill-opacity:1;stroke:#000000;stroke-width:1;stroke-miterlimit:4;stroke-dasharray:none;stroke-dashoffset:4.57999992;stroke-opacity:1"
     d="m 187.99708,27.919453 -13.76591,18.285953 13.76593,18.285943 -22.66638,-2.818435 -8.90048,21.104415 -8.90046,-21.104415 -22.66639,2.818435 13.76593,-18.285943 -13.76593,-18.285971 22.66639,2.818453 8.90046,-21.1043958 8.90048,21.1043958 z"
     inkscape:connector-curvature="0"
     sodipodi:nodetypes="ccccccccccccc" />
  <path
     id="path850-6-6-9-0"
     style="opacity:1;fill:#ffffff;fill-opacity:1;stroke:#000000;stroke-width:1;stroke-miterlimit:4;stroke-dasharray:none;stroke-dashoffset:4.57999992;stroke-opacity:1"
     d="M 83.997081,27.91945 70.231166,46.205403 83.9971,64.491347 61.330717,61.672911 52.43024,82.777326 43.529782,61.672911 20.86339,64.491347 34.629324,46.205403 20.86339,27.919432 43.529782,30.737885 52.43024,9.6334895 61.330717,30.737885 Z"
     inkscape:connector-curvature="0"
     sodipodi:nodetypes="ccccccccccccc" />
  <path
     inkscape:connector-curvature="0"
     style="fill:none;fill-opacity:1;fill-rule:evenodd;stroke:#000000;stroke-width:1.99999988;stroke-linecap:butt;stroke-miterlimit:4;stroke-dashoffset:0;stroke-opacity:1"
     id="path4212-7"
     d="M 1,0.99999834 4.761095,159.00304 c 2.686489,112.85918 196.651755,112.85918 199.338255,0 l 3.7611,-158.00304166 z" />
</svg>

<?xml version="1.0" encoding="UTF-8"?>
<svg version="1.0" viewBox="0 0 208.86 244.66" xmlns="http://www.w3.org/2000/svg" xmlns:cc="http://creativecommons.org/ns#" xmlns:dc="http://purl.org/dc/elements/1.1/" xmlns:rdf="http://www.w3.org/1999/02/22-rdf-syntax-ns#">
<metadata>
<rdf:RDF>
<cc:Work rdf:about="">
<dc:format>image/svg+xml</dc:format>
<dc:type rdf:resource="http://purl.org/dc/dcmitype/StillImage"/>
<dc:title/>
</cc:Work>
</rdf:RDF>
</metadata>
<path d="m1 1 3.7611 158c2.6865 112.86 196.65 112.86 199.34 0l3.7611-158z" fill="#cc2918" fill-rule="evenodd" stroke="#000" stroke-width="2"/>
<path d="m136 177.02-13.766 18.286 13.766 18.286-22.666-2.8184-8.9005 21.104-8.9005-21.104-22.666 2.8184 13.766-18.286-13.766-18.286 22.666 2.8184 8.9005-21.104 8.9005 21.104z" fill="#fff" stroke="#000" stroke-dashoffset="4.58"/>
<path d="m3.1302 90.49 1.333 56h199.93l1.333-56z" fill="#fff" stroke="#000" stroke-dashoffset="4.58" stroke-miterlimit="20"/>
<path d="m188 27.919-13.766 18.286 13.766 18.286-22.666-2.8184-8.9005 21.104-8.9005-21.104-22.666 2.8184 13.766-18.286-13.766-18.286 22.666 2.8185 8.9005-21.104 8.9005 21.104z" fill="#fff" stroke="#000" stroke-dashoffset="4.58"/>
<path d="m83.997 27.919-13.766 18.286 13.766 18.286-22.666-2.8184-8.9005 21.104-8.9005-21.104-22.666 2.8184 13.766-18.286-13.766-18.286 22.666 2.8185 8.9005-21.104 8.9005 21.104z" fill="#fff" stroke="#000" stroke-dashoffset="4.58"/>
<path d="m1 1 3.7611 158c2.6865 112.86 196.65 112.86 199.34 0l3.7611-158z" fill="none" stroke="#000" stroke-width="2"/>
</svg>
